public/img/logo.svg

<svg width="68" height="30" viewBox="0 0 68 30" fill="none" xmlns="http://www.w3.org/2000/svg">
<path d="M61.5118 9.13989C62.4913 9.13989 63.2853 8.34145 63.2853 7.35653C63.2853 6.37162 62.4913 5.57318 61.5118 5.57318C60.5323 5.57318 59.7383 6.37162 59.7383 7.35653C59.7383 8.34145 60.5323 9.13989 61.5118 9.13989Z" fill="#212121"/>
<path d="M5.52051 8.32357H9.46725V17.9939H11.8778V8.32357H15.8245V5.89972H5.52051V8.32357Z" fill="#212121"/>
<path d="M21.0452 9.75475C20.3501 9.32578 19.5501 9.09967 18.7346 9.10169C18.0253 9.08693 17.3224 9.23882 16.6818 9.54527C16.0412 9.85173 15.4806 10.3043 15.0445 10.867C14.6084 11.4296 14.309 12.0869 14.1699 12.7864C14.0309 13.4859 14.0562 14.2084 14.2437 14.8963C14.4312 15.5843 14.7758 16.2188 15.2501 16.7493C15.7244 17.2798 16.3152 17.6916 16.9757 17.9521C17.6361 18.2126 18.3479 18.3145 19.0543 18.2497C19.7608 18.1849 20.4425 17.9552 21.0452 17.5789V17.9556H23.2808V9.35287H21.0452V9.75475ZM18.7221 16.0342C18.2627 16.0342 17.8135 15.8972 17.4315 15.6405C17.0495 15.3838 16.7517 15.019 16.5759 14.5921C16.4 14.1653 16.354 13.6956 16.4437 13.2425C16.5333 12.7894 16.7546 12.3731 17.0795 12.0465C17.4043 11.7198 17.8183 11.4973 18.2689 11.4072C18.7195 11.317 19.1866 11.3633 19.6111 11.5401C20.0356 11.7169 20.3984 12.0163 20.6537 12.4004C20.909 12.7846 21.0452 13.2362 21.0452 13.6982C21.0419 14.3122 20.797 14.9 20.364 15.333C19.9311 15.766 19.3453 16.009 18.7346 16.009L18.7221 16.0342Z" fill="#212121"/>
<path d="M30.2376 9.10171C29.4201 9.10129 28.6176 9.32256 27.9146 9.74221V9.36544H25.6914V21.4596H27.9271V17.5789C28.6257 18.0101 29.4304 18.2363 30.2501 18.232C30.868 18.2645 31.4861 18.1702 32.0666 17.9549C32.6471 17.7396 33.1779 17.4076 33.6267 16.9794C34.0755 16.5511 34.433 16.0354 34.6772 15.4638C34.9214 14.8921 35.0474 14.2765 35.0474 13.6543C35.0474 13.0321 34.9214 12.4164 34.6772 11.8448C34.433 11.2732 34.0755 10.7575 33.6267 10.3292C33.1779 9.90093 32.6471 9.569 32.0666 9.35366C31.4861 9.13831 30.868 9.04404 30.2501 9.07659L30.2376 9.10171ZM30.2376 16.0091C29.7782 16.0091 29.329 15.8721 28.947 15.6154C28.565 15.3587 28.2672 14.9939 28.0914 14.567C27.9156 14.1402 27.8696 13.6705 27.9592 13.2174C28.0488 12.7643 28.2701 12.348 28.595 12.0214C28.9199 11.6947 29.3338 11.4722 29.7844 11.3821C30.2351 11.2919 30.7022 11.3382 31.1267 11.515C31.5511 11.6918 31.914 11.9912 32.1692 12.3753C32.4245 12.7595 32.5607 13.2111 32.5607 13.6731C32.5624 13.9803 32.5034 14.2848 32.3873 14.569C32.2711 14.8532 32.1001 15.1113 31.884 15.3286C31.668 15.5458 31.4112 15.7178 31.1286 15.8346C30.846 15.9514 30.5432 16.0107 30.2376 16.0091Z" fill="#212121"/>
<path d="M38.9178 9.35284H36.6821V17.9933H38.9178V9.35284Z" fill="#212121"/>
<path d="M47.6729 9.7422C47.0711 9.38738 46.3961 9.1766 45.7003 9.12615C45.0045 9.07571 44.3065 9.18697 43.6602 9.45131C43.014 9.71565 42.437 10.126 41.9738 10.6505C41.5106 11.1751 41.1737 11.7998 40.9891 12.4763C40.8046 13.1528 40.7773 13.8629 40.9095 14.5517C41.0416 15.2405 41.3297 15.8895 41.7513 16.4484C42.1729 17.0073 42.7167 17.4611 43.3407 17.7748C43.9648 18.0884 44.6522 18.2534 45.3498 18.2571C46.1502 18.2597 46.9362 18.0426 47.6229 17.6291C47.5111 18.1508 47.224 18.6178 46.8101 18.9517C46.3961 19.2856 45.8805 19.4661 45.3498 19.4627C45.0449 19.4645 44.7427 19.4042 44.4615 19.2855C44.1803 19.1668 43.9259 18.9921 43.7137 18.772L42.1275 20.367C42.7622 21.0251 43.5786 21.4767 44.4712 21.6635C45.3638 21.8503 46.2916 21.7636 47.1347 21.4148C47.9779 21.0659 48.6976 20.4709 49.201 19.7065C49.7044 18.9421 49.9682 18.0435 49.9585 17.1268V9.35287H47.6729V9.7422ZM45.3498 16.0216C44.8903 16.0216 44.4412 15.8846 44.0592 15.6279C43.6771 15.3713 43.3794 15.0064 43.2036 14.5796C43.0277 14.1528 42.9817 13.6831 43.0714 13.2299C43.161 12.7768 43.3822 12.3606 43.7071 12.0339C44.032 11.7072 44.446 11.4847 44.8966 11.3946C45.3472 11.3045 45.8143 11.3507 46.2388 11.5275C46.6633 11.7043 47.0261 12.0037 47.2814 12.3879C47.5366 12.772 47.6729 13.2237 47.6729 13.6857C47.6729 14.3019 47.4295 14.8928 46.9961 15.3285C46.5628 15.7643 45.9751 16.009 45.3623 16.009L45.3498 16.0216Z" fill="#212121"/>
<path d="M56.3537 9.10168C55.452 9.10168 54.5706 9.37053 53.821 9.87422C53.0713 10.3779 52.487 11.0938 52.1419 11.9314C51.7969 12.7691 51.7066 13.6907 51.8825 14.5799C52.0584 15.4691 52.4926 16.2859 53.1301 16.927C53.7677 17.5681 54.58 18.0047 55.4643 18.1815C56.3486 18.3584 57.2652 18.2676 58.0982 17.9207C58.9312 17.5737 59.6432 16.9862 60.1441 16.2324C60.645 15.4785 60.9124 14.5923 60.9124 13.6856C60.9124 12.4699 60.4321 11.304 59.5772 10.4443C58.7222 9.58464 57.5627 9.10168 56.3537 9.10168ZM56.3537 16.009C55.8953 16.0041 55.4486 15.8629 55.0699 15.6032C54.6912 15.3435 54.3973 14.977 54.2253 14.5497C54.0533 14.1225 54.0108 13.6536 54.1033 13.2022C54.1957 12.7507 54.4189 12.3368 54.7448 12.0127C55.0706 11.6885 55.4846 11.4685 55.9345 11.3804C56.3845 11.2923 56.8503 11.34 57.2733 11.5175C57.6964 11.695 58.0577 11.9944 58.3119 12.378C58.5661 12.7615 58.7017 13.2122 58.7017 13.6731C58.7034 13.9825 58.6437 14.289 58.526 14.5749C58.4082 14.8607 58.2349 15.12 58.0162 15.3376C57.7975 15.5552 57.5378 15.7266 57.2523 15.8419C56.9668 15.9572 56.6613 16.014 56.3537 16.009Z" fill="#E94A49"/>
<path d="M11.9401 30.0001C8.77443 29.9967 5.73933 28.7307 3.50084 26.4798C1.26234 24.229 0.00330622 21.1771 0 17.9938H5.55791C5.56121 19.6949 6.23468 21.3253 7.43087 22.5281C8.62705 23.7309 10.2485 24.4081 11.9401 24.4114V30.0001Z" fill="#0487C0"/>
<path d="M56.3286 24.9012V20.8196C58.219 20.8163 60.0311 20.0597 61.3678 18.7156C62.7045 17.3714 63.4569 15.5494 63.4602 13.6485H67.5194C67.5062 16.6288 66.323 19.4833 64.2271 21.5908C62.1313 23.6982 59.2925 24.888 56.3286 24.9012Z" fill="#212121"/>
<path d="M18.0974 5.27177L15.9741 3.13677C17.974 1.12824 20.6851 6.10352e-05 23.5116 6.10352e-05C26.3382 6.10352e-05 29.0492 1.12824 31.0492 3.13677L28.9259 5.27177C28.215 4.55673 27.3709 3.98952 26.4419 3.60253C25.5129 3.21555 24.5172 3.01637 23.5116 3.01637C22.5061 3.01637 21.5104 3.21555 20.5814 3.60253C19.6524 3.98952 18.8083 4.55673 18.0974 5.27177Z" fill="#E94A49"/>
</svg>

<svg width="68" height="30" fill="none" xmlns="http://www.w3.org/2000/svg"><path d="M61.512 9.14c.98 0 1.773-.799 1.773-1.783 0-.985-.794-1.784-1.773-1.784-.98 0-1.774.799-1.774 1.784 0 .984.794 1.783 1.774 1.783zM5.52 8.324h3.947v9.67h2.41v-9.67h3.947V5.9H5.521v2.424z" fill="#212121"/><path d="M21.045 9.755a4.379 4.379 0 0 0-2.31-.653 4.538 4.538 0 0 0-3.69 1.765 4.596 4.596 0 0 0-.801 4.03 4.591 4.591 0 0 0 1.006 1.852 4.535 4.535 0 0 0 5.795.83v.377h2.236V9.353h-2.236v.402zm-2.323 6.28a2.333 2.333 0 0 1-2.146-1.442 2.347 2.347 0 0 1 .503-2.546 2.318 2.318 0 0 1 2.532-.507 2.33 2.33 0 0 1 1.434 2.158 2.33 2.33 0 0 1-.681 1.635 2.304 2.304 0 0 1-1.63.676l-.012.025zm11.516-6.933c-.818 0-1.62.22-2.323.64v-.377H25.69V21.46h2.236v-3.881a4.379 4.379 0 0 0 2.323.653 4.538 4.538 0 0 0 3.377-1.253 4.585 4.585 0 0 0 1.42-3.325 4.606 4.606 0 0 0-1.42-3.325 4.554 4.554 0 0 0-3.377-1.252l-.012.025zm0 6.907c-.46 0-.909-.137-1.291-.394a2.348 2.348 0 0 1-.352-3.594 2.319 2.319 0 0 1 2.532-.506 2.34 2.34 0 0 1 1.434 2.158 2.335 2.335 0 0 1-.677 1.656 2.31 2.31 0 0 1-1.646.68zm8.68-6.656h-2.236v8.64h2.236v-8.64zm8.755.389a4.529 4.529 0 0 0-5.7.908 4.58 4.58 0 0 0-1.063 3.902 4.58 4.58 0 0 0 .841 1.896 4.528 4.528 0 0 0 3.599 1.809c.8.003 1.586-.214 2.273-.628a2.325 2.325 0 0 1-.813 1.323c-.414.334-.93.514-1.46.51a2.25 2.25 0 0 1-1.636-.69l-1.587 1.595a4.536 4.536 0 0 0 5.007 1.048 4.565 4.565 0 0 0 2.067-1.709 4.602 4.602 0 0 0 .758-2.58V9.354h-2.286v.39zm-2.323 6.28c-.46 0-.909-.137-1.29-.394a2.347 2.347 0 0 1-.352-3.594 2.32 2.32 0 0 1 2.53-.507 2.33 2.33 0 0 1 1.435 2.159 2.33 2.33 0 0 1-.677 1.643 2.304 2.304 0 0 1-1.634.68l-.012.013z" fill="#212121"/><path d="M56.354 9.102a4.54 4.54 0 0 0-2.533.772 4.579 4.579 0 0 0-1.68 2.057 4.608 4.608 0 0 0 .99 4.996 4.536 4.536 0 0 0 4.968.994 4.565 4.565 0 0 0 2.045-1.689 4.602 4.602 0 0 0-.567-5.788 4.546 4.546 0 0 0-3.223-1.342zm0 6.907a2.313 2.313 0 0 1-1.284-.406 2.347 2.347 0 0 1-.325-3.59 2.318 2.318 0 0 1 2.528-.496 2.345 2.345 0 0 1 1.429 2.156 2.335 2.335 0 0 1-.686 1.665 2.309 2.309 0 0 1-1.662.671z" fill="#E94A49"/><path d="M11.94 30a11.92 11.92 0 0 1-8.44-3.52A12.052 12.052 0 0 1 0 17.994h5.558a6.448 6.448 0 0 0 1.873 4.534 6.377 6.377 0 0 0 4.51 1.883v5.59z" fill="#0487C0"/><path d="M56.329 24.901V20.82a7.124 7.124 0 0 0 5.039-2.104 7.204 7.204 0 0 0 2.092-5.068h4.06a11.335 11.335 0 0 1-3.293 7.943 11.21 11.21 0 0 1-7.898 3.31z" fill="#212121"/><path d="m18.097 5.272-2.123-2.135C17.974 1.128 20.685 0 23.512 0c2.826 0 5.537 1.128 7.537 3.137l-2.123 2.135a7.62 7.62 0 0 0-10.828 0z" fill="#E94A49"/></svg>
